svgs/thin/router.svg

<svg xmlns="http://www.w3.org/2000/svg" viewBox="0 0 576 512"><!--! Font Awesome Pro 6.3.0 by @fontawesome - https://fontawesome.com License - https://fontawesome.com/license (Commercial License) Copyright 2023 Fonticons, Inc. --><path d="M96 400c-8.836 0-16 7.164-16 16s7.164 16 16 16s16-7.164 16-16S104.8 400 96 400zM192 400c-8.836 0-16 7.164-16 16s7.164 16 16 16s16-7.164 16-16S200.8 400 192 400zM512 320h-152V224c0-4.406-3.594-8-8-8S344 219.6 344 224v96H64c-35.35 0-64 28.65-64 64v63.1C0 483.3 28.65 512 64 512h448c35.35 0 64-28.66 64-64V384C576 348.7 547.3 320 512 320zM560 448c0 26.47-21.53 48-48 48H64c-26.47 0-48-21.53-48-48v-64c0-26.47 21.53-48 48-48h448c26.47 0 48 21.53 48 48V448zM154 101.5C205.1 46.34 276.3 16 352 16s146 30.34 197.1 85.5C551.5 103.2 553.7 104 555.8 104c1.969 0 3.938-.7187 5.5-2.188c3.188-3.031 3.344-8.094 .3125-11.31C507.4 33 431 0 352 0S196.6 33 142.4 90.5C139.4 93.72 139.5 98.78 142.7 101.8C145.1 104.8 151 104.7 154 101.5zM352 112c-51.69 0-100.6 22.59-134.1 62c-2.875 3.375-2.469 8.406 .9062 11.28c3.344 2.875 8.406 2.469 11.28-.9062C260.6 148.5 305 128 352 128s91.44 20.53 121.9 56.38C475.5 186.2 477.8 187.2 480 187.2c1.844 0 3.688-.625 5.188-1.906c3.375-2.875 3.781-7.906 .9062-11.28C452.6 134.6 403.7 112 352 112z"/></svg>

<svg xmlns="http://www.w3.org/2000/svg" viewBox="0 0 576 512"><!-- Font Awesome Pro 6.0.0-alpha2 by @fontawesome - https://fontawesome.com License - https://fontawesome.com/license (Commercial License) --><path d="M96 400C87.164 400 80 407.164 80 416S87.164 432 96 432S112 424.836 112 416S104.836 400 96 400ZM192 400C183.164 400 176 407.164 176 416S183.164 432 192 432S208 424.836 208 416S200.836 400 192 400ZM512 320H360V224C360 219.594 356.406 216 352 216S344 219.594 344 224V320H64C28.654 320 0 348.654 0 384V448C0 483.346 28.654 512 64 512H512C547.348 512 576 483.346 576 448V384C576 348.654 547.348 320 512 320ZM560 448C560 474.467 538.467 496 512 496H64C37.533 496 16 474.467 16 448V384C16 357.533 37.533 336 64 336H512C538.467 336 560 357.533 560 384V448ZM154.031 101.5C205.969 46.344 276.25 16 352 16S498.031 46.344 549.969 101.5C551.531 103.156 553.656 104 555.781 104C557.75 104 559.719 103.281 561.281 101.812C564.469 98.781 564.625 93.719 561.594 90.5C507.438 33 431.031 0 352 0S196.562 33 142.406 90.5C139.375 93.719 139.531 98.781 142.719 101.812C145.969 104.844 151.031 104.688 154.031 101.5ZM352 112C300.312 112 251.438 134.594 217.906 174C215.031 177.375 215.438 182.406 218.812 185.281C222.156 188.156 227.219 187.75 230.094 184.375C260.562 148.531 305 128 352 128S443.438 148.531 473.906 184.375C475.5 186.219 477.75 187.188 480 187.188C481.844 187.188 483.688 186.563 485.188 185.281C488.563 182.406 488.969 177.375 486.094 174C452.562 134.594 403.688 112 352 112Z"/></svg>
